X: 166
T:Garoon
T:Springtime
O:Armenia
F: http://www.youtube.com/watch?v=nRtwKR06P_U
F: http://www.youtube.com/watch?v=erGB0MNm0ns
F: http://www.youtube.com/watch?v=ayoRuHw5s-A
F: http://www.youtube.com/watch?v=qOA_2uOWWdE
S:Deborah Jones, VIFD Book
L:1/8
M:4/4
Q:1/4=160
K:Gm
|:"Gm" G2 GD G2 A2|"Cm" B2 B2 A2 G2 |"D7" ^F2 FD F2 G2      |"Gm" A2 BA G2 G2 |\
  "Gm" G2 GD G2 B2|"Cm" d2 d2 cBAG  |"D7" ^F2 FD F2 G2      |"Gm" A2 BA G2 G2 :|
|:"Gm" d2 d2 d2 d2| d2 d2 e d3      |"Cm" c4 B4             | A6 z2           |\
  "D7" c2 c2 c c3 | c2 c2 d2 c2     | "Gm" B4 "D7" c4       | "Gm" d6 z2      :|
|:  "Gm"B2 B2 B B3  | B2 B2 A2 B2     |"Cm" c4 B4             | A6 z2           |\
  "D7" A2 A2 A A3 | c2 c2 B2 A2     | "Gm" A2 G2 "D7" G2 ^F2|[1 "Gm" G6 z2    :|[2 G2 z2 G2 z2|
|:G2 GG G2 A2     |"Cm" B2 B2 A2 G2 |"D7" ^F2 FF F2 G2      |"Gm" A2 BA G2 z2 |\ 
  G2 G2 G2 B2     | "Cm" d2 d2 c2 z2|"D7" A3 G ^F2 G2       |"Gm" A2 BA G2 z2  :|



